websites/default/public/assets/img2/undraw_profile_1.svg

<svg enable-background="new 0 0 231.8 231.8" version="1.1" viewBox="0 0 231.8 231.8" xml:space="preserve" xmlns="http://www.w3.org/2000/svg">
<style type="text/css">
	.st0{opacity:0.5;}
	.st1{fill:url(#a);}
	.st2{fill:#F5F5F5;}
	.st3{fill:#333333;}
	.st4{fill:#4E73DF;}
	.st5{opacity:0.1;enable-background:new    ;}
	.st6{fill:#BE7C5E;}
</style>
<g class="st0">
	
		<linearGradient id="a" x1="115.89" x2="115.89" y1="525.2" y2="756.98" gradientTransform="matrix(1 0 0 -1 0 756.98)" gradientUnits="userSpaceOnUse">
		<stop stop-color="#808080" stop-opacity=".25" offset="0"/>
		<stop stop-color="#808080" stop-opacity=".12" offset=".54"/>
		<stop stop-color="#808080" stop-opacity=".1" offset="1"/>
	</linearGradient>
	<circle class="st1" cx="115.9" cy="115.9" r="115.9"/>
</g>
<circle class="st2" cx="115.9" cy="115.3" r="113.4"/>
<path class="st3" d="m71.6 116.3s-12.9 63.4-19.9 59.8c0 0 67.7 58.5 127.5 0 0 0-10.5-44.6-25.7-59.8h-81.9z"/>
<path class="st4" d="m116.2 229c22.2 0 43.9-6.5 62.4-18.7-4.2-22.8-20.1-24.1-20.1-24.1h-87.7s-15 1.2-19.7 22.2c19 13.5 41.8 20.7 65.1 20.6z"/>
<circle class="st3" cx="115" cy="112.8" r="50.3"/>
<path class="st5" d="m97.3 158.4h35.1v28.1c0 9.7-7.8 17.5-17.5 17.5s-17.5-7.9-17.5-17.5l-0.1-28.1z"/>
<path class="st6" d="m100.7 157.1h28.4c1.9 0 3.4 1.5 3.4 3.3v24.7c0 9.7-7.8 17.5-17.5 17.5s-17.5-7.9-17.5-17.5v-24.7c-0.1-1.8 1.4-3.3 3.2-3.3z"/>
<path class="st5" d="m97.4 171.6c11.3 4.2 23.8 4.3 35.1 0.1v-4.3h-35.1v4.2z"/>
<circle class="st6" cx="115" cy="123.7" r="50.3"/>
<path class="st3" d="m66.9 104.6h95.9s-8.2-38.7-44.4-36.2-51.5 36.2-51.5 36.2z"/>
<ellipse class="st6" cx="65.8" cy="121.5" rx="4.7" ry="8.8"/>
<ellipse class="st6" cx="164" cy="121.5" rx="4.7" ry="8.8"/>
<path class="st5" d="m66.9 105.9h95.9s-8.2-38.7-44.4-36.2-51.5 36.2-51.5 36.2z"/>
</svg>

<?xml version="1.0" encoding="utf-8"?>
<!-- Generator: Adobe Illustrator 25.0.0, SVG Export Plug-In . SVG Version: 6.00 Build 0)  -->
<svg version="1.1" id="_x38_8ce59e9-c4b8-4d1d-9d7a-ce0190159aa8"
	 xmlns="http://www.w3.org/2000/svg" xmlns:xlink="http://www.w3.org/1999/xlink" x="0px" y="0px" viewBox="0 0 231.8 231.8"
	 style="enable-background:new 0 0 231.8 231.8;" xml:space="preserve">
<style type="text/css">
	.st0{opacity:0.5;}
	.st1{fill:url(#SVGID_1_);}
	.st2{fill:#F5F5F5;}
	.st3{fill:#333333;}
	.st4{fill:#4E73DF;}
	.st5{opacity:0.1;enable-background:new    ;}
	.st6{fill:#BE7C5E;}
</style>
<g class="st0">
	
		<linearGradient id="SVGID_1_" gradientUnits="userSpaceOnUse" x1="115.89" y1="525.2" x2="115.89" y2="756.98" gradientTransform="matrix(1 0 0 -1 0 756.98)">
		<stop  offset="0" style="stop-color:#808080;stop-opacity:0.25"/>
		<stop  offset="0.54" style="stop-color:#808080;stop-opacity:0.12"/>
		<stop  offset="1" style="stop-color:#808080;stop-opacity:0.1"/>
	</linearGradient>
	<circle class="st1" cx="115.9" cy="115.9" r="115.9"/>
</g>
<circle class="st2" cx="115.9" cy="115.3" r="113.4"/>
<path class="st3" d="M71.6,116.3c0,0-12.9,63.4-19.9,59.8c0,0,67.7,58.5,127.5,0c0,0-10.5-44.6-25.7-59.8H71.6z"/>
<path class="st4" d="M116.2,229c22.2,0,43.9-6.5,62.4-18.7c-4.2-22.8-20.1-24.1-20.1-24.1H70.8c0,0-15,1.2-19.7,22.2
	C70.1,221.9,92.9,229.1,116.2,229z"/>
<circle class="st3" cx="115" cy="112.8" r="50.3"/>
<path class="st5" d="M97.3,158.4h35.1l0,0v28.1c0,9.7-7.8,17.5-17.5,17.5l0,0c-9.7,0-17.5-7.9-17.5-17.5L97.3,158.4L97.3,158.4z"/>
<path class="st6" d="M100.7,157.1h28.4c1.9,0,3.4,1.5,3.4,3.3v0v24.7c0,9.7-7.8,17.5-17.5,17.5l0,0c-9.7,0-17.5-7.9-17.5-17.5v0
	v-24.7C97.4,158.6,98.9,157.1,100.7,157.1z"/>
<path class="st5" d="M97.4,171.6c11.3,4.2,23.8,4.3,35.1,0.1v-4.3H97.4V171.6z"/>
<circle class="st6" cx="115" cy="123.7" r="50.3"/>
<path class="st3" d="M66.9,104.6h95.9c0,0-8.2-38.7-44.4-36.2S66.9,104.6,66.9,104.6z"/>
<ellipse class="st6" cx="65.8" cy="121.5" rx="4.7" ry="8.8"/>
<ellipse class="st6" cx="164" cy="121.5" rx="4.7" ry="8.8"/>
<path class="st5" d="M66.9,105.9h95.9c0,0-8.2-38.7-44.4-36.2S66.9,105.9,66.9,105.9z"/>
</svg>
